Pods/ProtonCore-UIFoundations/libraries/UIFoundations/Sources/Assets.xcassets/Images/IconSet/ic-arrow-down.imageset/ic-arrow-down.svg

<svg width="24" height="24" viewBox="0 0 24 24" fill="none" xmlns="http://www.w3.org/2000/svg">
<path fill-rule="evenodd" clip-rule="evenodd" d="M11.9973 3.00391C12.4115 3.00391 12.7473 3.33969 12.7473 3.75391L12.7473 18.549L19.7152 11.5328C20.007 11.2388 20.4819 11.2372 20.7758 11.5291C21.0697 11.821 21.0714 12.2958 20.7795 12.5897L12.7409 20.6842C12.5772 20.849 12.3712 20.9485 12.1574 20.9816C12.1058 20.9928 12.0523 20.9987 11.9973 20.9987C11.9424 20.9987 11.8888 20.9928 11.8372 20.9816C11.6235 20.9485 11.4174 20.849 11.2538 20.6842L3.21515 12.5897C2.92327 12.2958 2.92492 11.821 3.21882 11.5291C3.51273 11.2372 3.9876 11.2388 4.27948 11.5328L11.2473 18.549L11.2473 3.75391C11.2473 3.33969 11.5831 3.00391 11.9973 3.00391Z" fill="#0C0C14"/>
</svg>

<svg xmlns="http://www.w3.org/2000/svg" width="24" height="24" viewBox="0 0 24 24">
  <g class="ic-arrow-down">
    <path fill-rule="evenodd" d="M11.996 3.004a.75.75 0 0 1 .75.75v14.795l6.968-7.016a.75.75 0 1 1 1.064 1.057l-8.038 8.094c-.164.165-.37.264-.584.298a.754.754 0 0 1-.32 0 1.047 1.047 0 0 1-.584-.298L3.214 12.59a.75.75 0 1 1 1.064-1.057l6.968 7.016V3.754a.75.75 0 0 1 .75-.75Z" class="Icon"/>
  </g>
</svg>
